X:0299
T:Kiss me fast my mothers coming.
M:6/8
L:1/8
Q:3/8=120
I: :: ::
Z:Jack Campin * www.campin.me.uk * 2009
K:D
D2A F2A|E2F GFE|D2A F2A|D2A F2A |
G2B F2A|E2F GFE|dcB AFA|D2F AFD:|
d2a faf|e2f gfe|d2g faf|d2g faf |
gbg faf|e2f gfe|dcB AFA|D2F AFD:|

